X: 728
T: Lazy Kate
B: jims roots
M:2/4
L:1/8
R: Reel
Q: 1/4=100
K:A
V:1 
CB, |"A" [A,2E][C2E] [E2A][A2e] | cBcd cAE2 | "E"E2EF GFEG | BABc BGEC |
"A"A,B,CE A2A2 | cBcd cAE2 | "E"B,2EF GEFE | "A"CA,2A, [A,2E] :|
|: AB | "A"ce2f edcB | cdef edcA | "E"B2Bc BGE2 | BABc BGE2 |
"A"[e3e]f yedcB | cdef e2ef | "E"=gfed cABG |"A" EFAB A2 :|]
% abcbook-tune_id 6298c25d6b6b6f8cb06d1ab4


% abcbook-boost 0
% abcbook-tablature 
% abcbook-transpose 
% abcbook-lastupdated 1654178399656
% abcbook-soundfonts 
% abcbook-repeats 1


